X:1
T:Song 22 (Gibbons), 10.10.10.10
T:Song 22 (Gibbons), 10.10.10.10
T:Orlando Gibbons, 1623
T:Public Domain Courtesy of the Cyber Hymnal™
C:Orlando Gibbons, 1623
Z:Public Domain
Z:Courtesy of the Cyber Hymnal™
%%score ( 1 2 ) ( 3 4 )
L:1/8
M:4/4
K:G
V:1 treble 
V:2 treble 
V:3 bass 
V:4 bass 
V:1
 [Gd]4 [Ad]2 B2 | [Ge]4 [Gd]4 | d2 z [GB]2 d2 x2 | [FA]8 | [DA]4 [DB]2 [EG]2 | [Ec]4 [DA]4 | %6
 [Dd]2 [EG]2 [DB]2 [DA]2 | [B,G]8 | [DB]4 c2 z x3 | [Ee]4 [Ge]4 | A2 [Gd]2 [Ed]2 [E^c]2 | %11
 [Fd]6 [DF]2 | [DG]2 A2 [GB]3 [Fc] | [Gd]2 [Ee]2 [DA]2 [DA]2 | [B,G]8 |] %15
V:2
 x6 B2 | x8 | G3 (c2 F) x (DE) | x8 | x8 | x8 | x8 | x8 | x4 G3 (d2 =F) | x8 | A2 x6 | x8 | %12
 x2 (EF) x4 | x8 | x8 |] %15
V:3
 [G,B,]4 [F,D]2 [G,D]2 | (D2 C2) [G,B,]4 | [G,,B,]2 [A,,C]2 [B,,D]2 [G,,B,]2 x | [D,A,]8 | %4
 [D,F,]4 [B,,G,]2 [C,G,]2 | (A,3 G,) [D,F,]4 | [B,,G,]2 [C,G,]2 (G,E,) [D,F,]2 | [G,,G,]8 | %8
 G,4 (G,A,) [D,B,]2 x2 | [C,C]4 [C,C]4 | [D,C]2 [G,_B,]2 A,2 A,2 | [D,A,]6 [D,A,]2 | %12
 [B,,B,]2 [A,,C]2 [G,,D]3 [A,,C] | [B,,B,]2 (A,G,) (G,E,) [D,F,]2 | [G,,G,]8 |] %15
V:4
 x8 | C,4 x4 | x9 | x8 | x8 | A,,4 x4 | x4 D,2 x2 | x8 | G,4 E,2 x4 | x8 | x4 A,2 A,2 | x8 | x8 | %13
 x2 C,2 D,2 x2 | x8 |] %15

